src/img/Union7.svg

<svg width="50.000000" height="47.491211" viewBox="0 0 50 47.4912" fill="none" xmlns="http://www.w3.org/2000/svg" xmlns:xlink="http://www.w3.org/1999/xlink">
	<desc>
			Created with Pixso.
	</desc>
	<defs/>
	<path id="Union" d="M8.2998 18.3174C8.27637 18.3184 8.25293 18.3213 8.22998 18.3232C8.19775 18.3271 8.16553 18.3301 8.13281 18.3301C5.88184 18.2676 4.72412 16.5752 4.72412 14.8857C4.72412 13.2949 5.75146 11.7061 7.85938 11.4844C7.83545 11.4033 7.82129 11.3203 7.82129 11.2354C7.82129 11.2119 7.82227 11.1885 7.82471 11.165L8.27002 6.71094C8.65283 2.88477 11.8408 0 15.6855 0L18.2852 0C22.1304 0 25.3179 2.88477 25.7007 6.71094L26.1465 11.165C26.1489 11.1885 26.1499 11.2119 26.1499 11.2354C26.1499 11.3203 26.1353 11.4033 26.1113 11.4844C28.2285 11.708 29.2441 13.293 29.2441 14.8809C29.2441 16.625 28.0176 18.3721 25.6772 18.3184C22.8892 26.6621 11.0737 26.5732 8.2998 18.3174ZM15.6855 1.66602C12.7002 1.66602 10.2251 3.90625 9.92822 6.87695L9.57422 10.415L24.3965 10.415L24.0425 6.87695C23.7456 3.90625 21.2705 1.66602 18.2852 1.66602L15.6855 1.66602ZM16.1528 3.95801C16.1528 3.49707 16.5259 3.12402 16.9858 3.12402C17.4458 3.12402 17.8188 3.49707 17.8188 3.95801L17.8188 7.08203C17.8188 7.54199 17.4458 7.91504 16.9858 7.91504C16.5259 7.91504 16.1528 7.54199 16.1528 7.08203L16.1528 3.95801ZM10.4458 12.0811C12.6172 16.7588 21.3521 16.7617 23.5254 12.0811L10.4458 12.0811ZM7.82373 15.4736C7.82373 14.6836 7.92822 13.8926 8.10645 13.123C6.96973 13.1602 6.37988 14.0322 6.37988 14.9023C6.37988 15.7012 6.87695 16.499 7.90479 16.6494C7.84961 16.2598 7.82373 15.8672 7.82373 15.4736ZM26.0664 16.6494C26.9351 16.5371 27.6084 15.792 27.6084 14.8936C27.6084 13.9258 26.8286 13.1377 25.8643 13.123C26.0459 13.8848 26.1475 14.6709 26.1475 15.457C26.1475 15.8555 26.1216 16.2539 26.0664 16.6494ZM9.64258 13.9316C9.59424 14.1631 9.55859 14.3965 9.52979 14.6309C9.49854 14.9023 9.4834 15.1719 9.4834 15.4404C9.4834 19.4131 12.8228 22.9521 16.9854 22.9121C21.1299 23 24.4966 19.4004 24.4966 15.4268C24.4966 14.9297 24.4438 14.4268 24.3335 13.9248C21.1089 18.3652 12.874 18.3691 9.64258 13.9316ZM40.0464 17.5029C40.0435 17.9609 39.6704 18.3301 39.207 18.3301C38.749 18.3262 38.3799 17.9541 38.3799 17.4971L38.3799 17.4912L38.3989 14.9912C38.4019 14.5312 38.7534 14.1396 39.2383 14.1641C39.6963 14.168 40.0654 14.54 40.0654 14.998L40.0654 15.0039L40.0464 17.5029ZM35.8809 18.1689C35.8809 18.9932 34.5938 19.3506 34.2568 18.4277C34.2568 18.4277 33.4194 16.0732 33.4194 16.0723C33.3843 15.9678 33.3682 15.8682 33.3682 15.7744C33.3682 14.9404 34.6431 14.5938 34.9897 15.5146C34.9897 15.5146 35.8271 17.8701 35.8271 17.8701C35.8643 17.9746 35.8809 18.0742 35.8809 18.1689ZM44.1553 18.501C43.9951 18.9365 43.5034 19.1514 43.0835 18.9912C42.748 18.8662 42.541 18.5479 42.541 18.21C42.541 18.1133 42.5581 18.0156 42.5938 17.9189L43.4658 15.5771C43.627 15.1455 44.1069 14.9268 44.5376 15.0869C44.873 15.2119 45.0801 15.5303 45.0801 15.8682C45.0801 15.9648 45.063 16.0635 45.0273 16.1592L44.1553 18.501ZM34.1694 20.8291L47.5005 20.8291C48.8789 20.8291 50 21.9512 50 23.3291L50 26.6621C50 28.04 48.8789 29.1611 47.5005 29.1611L44.7017 29.1611C44.9141 30.0029 45.0146 30.8457 45.0146 31.6748C45.0146 37.4258 40.1826 42.5693 34.1694 42.4922C26.9863 42.1953 23.394 36.9277 23.394 31.6611C23.394 26.3936 26.9858 21.127 34.1694 20.8291ZM47.5005 27.4951C47.96 27.4951 48.3335 27.1211 48.3335 26.6621L48.3335 23.3291C48.3335 22.8701 47.96 22.4961 47.5005 22.4961L34.1694 22.4961C28.0908 22.7471 25.0518 27.2041 25.0518 31.6602C25.0518 36.1172 28.0913 40.5752 34.1694 40.8262C39.3047 40.9141 43.3496 36.459 43.3496 31.626C43.3496 30.623 43.1753 29.6045 42.8013 28.6064C42.7671 28.5176 42.7515 28.4258 42.7515 28.335C42.7515 27.8965 43.124 27.4824 43.5869 27.4951L47.5005 27.4951ZM29.8872 47.4912L4.0835 47.4912C0.935547 47.3828 0 44.8027 0 42.0938C0 41.9355 0.00341797 41.7764 0.00927734 41.6172C0.00927734 33.7676 5.28369 26.9424 12.835 25.0215C13.1611 24.9346 13.5049 25.0596 13.7065 25.3281C14.5029 26.3877 15.6997 26.9951 16.9897 26.9951C18.2744 26.9951 19.4678 26.3877 20.2646 25.3281C20.7476 24.748 21.6118 25.0898 22.3662 25.3877C22.6382 25.4961 22.896 25.5977 23.1157 25.6484C23.4497 25.7744 23.6553 26.0918 23.6553 26.4287C23.6553 26.5264 23.6382 26.626 23.6016 26.7227C23.2617 27.5127 22.5298 27.2334 21.8652 26.9805C21.6392 26.8936 21.4209 26.8105 21.2285 26.7734C19.063 29.2715 14.9062 29.2676 12.7422 26.7734C10.6685 27.376 8.79932 28.3965 7.21094 29.7256C7.88916 31.7412 9.66113 33.4521 12.1001 34.4492C12.6348 33.7715 13.4536 33.3271 14.3818 33.3271L19.5894 33.3271C21.1968 33.3271 22.5054 34.6357 22.5054 36.2432L22.5054 37.2842C22.5054 38.8926 21.1968 40.2012 19.5894 40.2012L14.3818 40.2012C12.7739 40.2012 11.4658 38.8926 11.4658 37.2842C11.4663 37.2627 11.4663 37.2305 11.4663 37.1904C11.4663 37.1338 11.4658 37.0625 11.4653 36.9824L11.4653 36.9824C11.4648 36.8799 11.4639 36.7627 11.4639 36.6465C11.4639 36.3633 11.4688 36.0801 11.4907 35.9971C8.87354 34.9307 6.8833 33.1328 5.90625 30.9668C3.26416 33.7656 1.67578 37.5332 1.67578 41.6172L1.67578 41.6172C1.67529 41.6963 1.6748 41.7754 1.6748 41.8564C1.6748 43.623 1.89746 45.7773 4.0835 45.8252L8.34131 45.8252L8.34131 41.4502C8.34131 40.9902 8.71436 40.6172 9.17432 40.6172C9.63428 40.6172 10.0073 40.9902 10.0073 41.4502L10.0073 45.8252L23.9634 45.8252L23.9634 41.4502C23.9634 40.9902 24.3364 40.6172 24.7964 40.6172C25.2568 40.6172 25.6299 40.9902 25.6299 41.4502L25.6299 45.8252L29.8872 45.8252C30.9951 45.8252 31.9326 45.0381 32.1147 43.9531C32.3076 42.9297 33.77 43.124 33.77 44.0801C33.77 44.1279 33.7661 44.1777 33.7583 44.2305C33.4399 46.1191 31.812 47.4912 29.8872 47.4912ZM28.3379 31.6611C28.3379 28.4453 30.9541 25.8291 34.1704 25.8291C37.3862 25.8291 40.0024 28.4453 40.0024 31.6611C39.7104 39.3857 28.6313 39.3877 28.3379 31.6611ZM30.0044 31.6611C30.0044 33.958 31.873 35.8271 34.1704 35.8271C36.4673 35.8271 38.3359 33.958 38.3359 31.6611C38.1411 26.1484 30.2002 26.1475 30.0044 31.6611ZM14.3818 34.9932C13.7212 34.9824 13.1318 35.5635 13.1318 36.2383L13.1318 36.2432L13.1318 37.2842C13.1318 37.9736 13.6924 38.5342 14.3818 38.5342L19.5894 38.5342C20.2783 38.5342 20.8389 37.9736 20.8389 37.2842L20.8389 36.2432C20.8389 35.5537 20.2783 34.9932 19.5894 34.9932L14.3818 34.9932Z" fill="#FFFFFF" fill-opacity="1.000000" fill-rule="evenodd"/>
</svg>

<svg width="50" height="47.491" fill="none" xmlns="http://www.w3.org/2000/svg"><path d="M8.3 18.317c-.024.001-.047.004-.07.006a.807.807 0 0 1-.097.007c-2.251-.062-3.409-1.755-3.409-3.444 0-1.591 1.027-3.18 3.135-3.402a.877.877 0 0 1-.034-.319l.445-4.454A7.43 7.43 0 0 1 15.685 0h2.6a7.429 7.429 0 0 1 7.416 6.71l.445 4.455a.876.876 0 0 1-.035.32c2.118.223 3.133 1.808 3.133 3.396 0 1.744-1.226 3.491-3.567 3.437-2.788 8.344-14.603 8.255-17.377 0Zm7.385-16.651a5.768 5.768 0 0 0-5.757 5.211l-.354 3.538h14.822l-.354-3.538a5.768 5.768 0 0 0-5.757-5.211h-2.6Zm.468 2.292a.833.833 0 1 1 1.666 0v3.124a.833.833 0 0 1-1.666 0V3.958Zm-5.707 8.123c2.171 4.678 10.906 4.68 13.08 0h-13.08Zm-2.622 3.393c0-.79.104-1.581.282-2.351-1.136.037-1.726.91-1.726 1.78 0 .798.497 1.596 1.525 1.746a8.38 8.38 0 0 1-.081-1.175Zm18.242 1.175a1.773 1.773 0 0 0 1.542-1.755c0-.968-.78-1.756-1.744-1.771.182.762.284 1.548.284 2.334 0 .398-.026.797-.082 1.192ZM9.643 13.932a8.47 8.47 0 0 0-.113.699 7.067 7.067 0 0 0-.047.81c0 3.972 3.34 7.511 7.502 7.471 4.145.088 7.512-3.512 7.512-7.485 0-.497-.053-1-.163-1.502-3.225 4.44-11.46 4.444-14.691.007Zm30.403 3.57a.834.834 0 0 1-1.666-.006v-.005l.019-2.5c.003-.46.354-.851.84-.827a.834.834 0 0 1 .826.834v.006l-.019 2.499Zm-4.165.667c0 .824-1.287 1.182-1.624.259l-.838-2.356a.934.934 0 0 1-.05-.298c0-.834 1.274-1.18 1.62-.26l.838 2.356a.886.886 0 0 1 .054.299Zm8.274.332a.834.834 0 0 1-1.561-.582l.872-2.342a.834.834 0 0 1 1.561.582l-.872 2.342Zm-9.986 2.328h13.332c1.378 0 2.499 1.122 2.499 2.5v3.333a2.502 2.502 0 0 1-2.5 2.5h-2.798c.212.84.313 1.684.313 2.513 0 5.75-4.832 10.894-10.846 10.817-7.183-.297-10.775-5.564-10.775-10.83 0-5.268 3.592-10.535 10.775-10.833Zm13.332 6.666c.459 0 .833-.374.833-.833V23.33a.834.834 0 0 0-.834-.833H34.17c-6.08.251-9.118 4.708-9.118 9.164 0 4.457 3.04 8.915 9.117 9.166 5.136.088 9.18-4.367 9.18-9.2a8.579 8.579 0 0 0-.548-3.02.753.753 0 0 1-.05-.271c0-.439.373-.853.836-.84H47.5ZM29.887 47.491H4.084C.936 47.383 0 44.803 0 42.094c0-.159.003-.318.01-.477 0-7.85 5.274-14.675 12.825-16.595a.826.826 0 0 1 .871.306c.797 1.06 1.994 1.667 3.284 1.667 1.284 0 2.478-.607 3.275-1.667.483-.58 1.347-.238 2.101.06.272.108.53.21.75.26a.834.834 0 0 1 .486 1.075c-.34.79-1.072.51-1.737.258a4.038 4.038 0 0 0-.636-.208c-2.166 2.498-6.323 2.495-8.487 0a15.233 15.233 0 0 0-5.531 2.953c.678 2.015 2.45 3.726 4.89 4.723a2.903 2.903 0 0 1 2.28-1.122h5.208a2.92 2.92 0 0 1 2.916 2.916v1.041a2.92 2.92 0 0 1-2.916 2.917h-5.207a2.92 2.92 0 0 1-2.916-3.01v-.209l-.002-.335c0-.284.005-.567.027-.65-2.617-1.066-4.608-2.864-5.585-5.03a15.488 15.488 0 0 0-4.23 10.65l-.001.24c0 1.766.222 3.92 2.408 3.968h4.258V41.45a.833.833 0 0 1 1.666 0v4.375h13.956V41.45a.833.833 0 0 1 1.667 0v4.375h4.257a2.246 2.246 0 0 0 2.228-1.872c.193-1.023 1.655-.829 1.655.127 0 .048-.004.098-.012.15a3.909 3.909 0 0 1-3.87 3.261Zm-1.55-15.83a5.839 5.839 0 0 1 5.833-5.832 5.839 5.839 0 0 1 5.832 5.832c-.292 7.725-11.37 7.727-11.664 0Zm1.667 0a4.17 4.17 0 0 0 4.166 4.166 4.17 4.17 0 0 0 4.166-4.166c-.195-5.513-8.136-5.514-8.332 0Zm-15.622 3.332c-.66-.01-1.25.57-1.25 1.245V37.284c0 .69.56 1.25 1.25 1.25h5.207c.69 0 1.25-.56 1.25-1.25v-1.04c0-.69-.56-1.25-1.25-1.25h-5.207Z" fill="#FFF" fill-rule="evenodd"/></svg>
